X:1
T:Title
%%score { 1 | 2 }
L:1/8
M:6/4
K:Ab
V:1 treble nm="Grand Piano"
V:2 bass 
V:1
 z6 z4[Q:1/4=108] E>E | [CA]2 [EA]2 A2 A4 G>A | [EGB]2 [EGB]2 [EGB]2 [EGB]4 c>d | %3
 e2 c2 A2 [Fd]2 [Ec]2 [DEB]2 |[M:5/4] [CEA]2- [CEA]2- [CEA]6 |[M:1/4] [CE]>[CE] | %6
[M:6/4] [CA]2 [EA]2 A2 A4 G>A | [GB]2 [GB]2 [GB]2 [GB]4 c>d | e2 c2 A2 [Fd]2 [Ec]2 [DEB]2 | %9
[M:5/4] [CEA]2- [CEA]2- [CEA]6 |[M:1/4] c>d |[M:6/4] e2 e2 e2 e4 [Bd]>[Ac] | %12
 [Bd]2 [Bd]2 [Bd]2 [Bd]4 [Ac]>[GB] | c2 c2 c2 e2 d2 c2 | [EGB]6- [EGB]4 [G,E][B,DE] | %15
 [A,CA]2 [A,EA]2 [CEA]2 [CEA]4 [DEG]>[CEA] | [EGB]2 [EGB]2 [EGB]2 [EGB]4 c>d | %17
 e2 c2 A2 [Fd]2 [Ec]2 [DEB]2 |[M:9/4] [CEA]12 z6 |] %19
V:2
 z6 z4 E,>[E,D] | [A,,E,]2 [C,A,]2 [E,CE]2 [A,CE]4 [B,DE]>[A,CE] | %2
 D,2 G,2 B,2 E,4[K:treble] [A,EA]>[A,DA] | [A,CA]2 [A,E]2 [A,C]2[K:bass] [D,A,]2 [E,A,]2 E,2 | %4
[M:5/4] A,,2- A,,2- A,,6 |[M:1/4] [A,,A,]>[A,,A,] | %6
[M:6/4] [A,,A,]2 [C,A,]2 [E,CE]2 [A,CE]4 [B,DE]>[A,CE] | %7
 [E,E]2 [G,E]2 [B,E]2 [E,E]4[K:treble] [A,EA]>[A,DA] | %8
 [A,CA]2 [A,E]2 [A,C]2[K:bass] [D,A,]2 [E,A,]2 E,2 |[M:5/4] A,,2- A,,2- A,,6 | %10
[M:1/4][K:treble] [A,A]>[A,A] |[M:6/4] [A,CA]2 [A,CA]2 [A,CA]2 [A,CA]4[K:bass] [G,E]>[A,E] | %12
 [E,E]2 [G,E]2 [B,E]2 [E,E]4 [E,E]>[E,E] | [A,EA]2 [A,EA]2 [A,EA]2 [CEA]2 [B,EG]2 [A,EA]2 | %14
 E,6- E,4 E,E, | A,,2 C,2 E,2 A,4 B,>A, | E,2 G,2 B,2 E,4[K:treble] [A,EA]>[A,DA] | %17
 [A,CA]2 [A,E]2 [A,C]2[K:bass] [D,A,]2 [E,A,]2 E,2 |[M:9/4] A,,12 z6 |] %19

